X: 3656
T: Bill The Weaver's
R: slide
M: 12/8
K: Dmajor
|:fed B2 d A2 d F2 B|A2 F D2 F E3 E2 g|
fed B2 d A2 d F2 B|A2 F EFE D3 D2 g|
fed B2 d A2 d F2 B|A2 F D2 F E3 E2 g|
fed B2 d A2 d F2 B|A2 F EFE D3 D2 e||
fef a3 baf a3|fdf a2 f g3 f2 e|
fdf a3 baf a3|fdf a2 f d3 d2 e|
fef a3 baf a3|fdf a2 f g3 f2 e|
faf ege ded BdB|1 ABA GFE D3 g2 g:|2 ABA GFE D3 d3||

